src/assets/images/store.svg

<?xml version="1.0" encoding="iso-8859-1"?>
<!-- Generator: Adobe Illustrator 19.1.0, SVG Export Plug-In . SVG Version: 6.00 Build 0)  -->
<svg version="1.1" id="Capa_1" xmlns="http://www.w3.org/2000/svg" xmlns:xlink="http://www.w3.org/1999/xlink" x="0px" y="0px"
	 viewBox="0 0 512 512" style="enable-background:new 0 0 512 512;" xml:space="preserve">
<g>
	<g>
		<rect x="32" y="132" style="fill:#FFE1B2;" width="448" height="312"/>
	</g>
	<g>
		<rect x="32" y="396" style="fill:#FFB980;" width="448" height="48"/>
	</g>
	<g>
		<rect x="32" y="116" style="fill:#FFB980;" width="448" height="56"/>
	</g>
	<g>
		<path style="fill:#7E5C62;" d="M192,188H80c-4.418,0-8,3.582-8,8v240h128V196C200,191.582,196.418,188,192,188z"/>
	</g>
	<g>
		<g>
			<path style="fill:#5C546A;" d="M504,452H8c-4.422,0-8-3.578-8-8s3.578-8,8-8h496c4.422,0,8,3.578,8,8S508.422,452,504,452z"/>
		</g>
	</g>
	<g>
		<g>
			<path style="fill:#5C546A;" d="M176,340c-4.422,0-8-3.578-8-8v-16c0-4.422,3.578-8,8-8s8,3.578,8,8v16
				C184,336.422,180.422,340,176,340z"/>
		</g>
	</g>
	<g>
		<path style="fill:#FF4F19;" d="M40,156L40,156c-13.255,0-24-10.745-24-24V76c0-8.837,7.163-16,16-16h32v72
			C64,145.255,53.255,156,40,156z"/>
	</g>
	<g>
		<path style="fill:#E9001E;" d="M88,156L88,156c-13.255,0-24-10.745-24-24V60h48v72C112,145.255,101.255,156,88,156z"/>
	</g>
	<g>
		<path style="fill:#FF4F19;" d="M136,156L136,156c-13.255,0-24-10.745-24-24V60h48v72C160,145.255,149.255,156,136,156z"/>
	</g>
	<g>
		<path style="fill:#E9001E;" d="M184,156L184,156c-13.255,0-24-10.745-24-24V60h48v72C208,145.255,197.255,156,184,156z"/>
	</g>
	<g>
		<path style="fill:#FF4F19;" d="M232,156L232,156c-13.255,0-24-10.745-24-24V60h48v72C256,145.255,245.255,156,232,156z"/>
	</g>
	<g>
		<path style="fill:#E9001E;" d="M280,156L280,156c-13.255,0-24-10.745-24-24V60h48v72C304,145.255,293.255,156,280,156z"/>
	</g>
	<g>
		<path style="fill:#FF4F19;" d="M328,156L328,156c-13.255,0-24-10.745-24-24V60h48v72C352,145.255,341.255,156,328,156z"/>
	</g>
	<g>
		<path style="fill:#E9001E;" d="M376,156L376,156c-13.255,0-24-10.745-24-24V60h48v72C400,145.255,389.255,156,376,156z"/>
	</g>
	<g>
		<path style="fill:#FF4F19;" d="M424,156L424,156c-13.255,0-24-10.745-24-24V60h48v72C448,145.255,437.255,156,424,156z"/>
	</g>
	<g>
		<path style="fill:#E9001E;" d="M472,156L472,156c-13.255,0-24-10.745-24-24V60h32c8.837,0,16,7.163,16,16v56
			C496,145.255,485.255,156,472,156z"/>
	</g>
	<g>
		<path style="fill:#53DCFF;" d="M440,196H240c-4.418,0-8,3.582-8,8v160c0,4.418,3.582,8,8,8h200c4.418,0,8-3.582,8-8V204
			C448,199.582,444.418,196,440,196z"/>
	</g>
	<g>
		<path style="fill:#B3F4FF;" d="M397.588,372H440c4.418,0,8-3.582,8-8v-9.47L289.47,196H232c-2.835,0-5.207,1.56-6.628,3.784
			L397.588,372z"/>
	</g>
	<g>
		<polygon style="fill:#FFFFFF;" points="334.059,196 448,309.941 448,276 368,196 		"/>
	</g>
	<g>
		<g>
			<path style="fill:#7E5C62;" d="M440,380H240c-8.82,0-16-7.18-16-16V204c0-8.82,7.18-16,16-16h200c8.82,0,16,7.18,16,16v160
				C456,372.82,448.82,380,440,380z M240,204v160h200.016L440,204H240z"/>
		</g>
	</g>
	<g>
		<path style="fill:#53DCFF;" d="M176,292H96c-4.418,0-8-3.582-8-8v-72c0-4.418,3.582-8,8-8h80c4.418,0,8,3.582,8,8v72
			C184,288.418,180.418,292,176,292z"/>
	</g>
	<g>
		<path style="fill:#B3F4FF;" d="M136.099,204H96c-4.418,0-8,3.582-8,8v11.784L156.216,292H176c4.418,0,8-3.582,8-8v-32.099
			L136.099,204z"/>
	</g>
</g>
<g>
</g>
<g>
</g>
<g>
</g>
<g>
</g>
<g>
</g>
<g>
</g>
<g>
</g>
<g>
</g>
<g>
</g>
<g>
</g>
<g>
</g>
<g>
</g>
<g>
</g>
<g>
</g>
<g>
</g>
</svg>

<svg width="512" height="512" viewBox="0 0 512 512" fill="none" xmlns="http://www.w3.org/2000/svg">
<path d="M480 132H32V444H480V132Z" fill="#FFEED5"/>
<path d="M480 396H32V444H480V396Z" fill="#CABDA9"/>
<path d="M480 116H32V172H480V116Z" fill="#CABDA9"/>
<path d="M192 188H80C75.582 188 72 191.582 72 196V436H200V196C200 191.582 196.418 188 192 188Z" fill="#5F464A"/>
<path d="M504 452H8C3.578 452 0 448.422 0 444C0 439.578 3.578 436 8 436H504C508.422 436 512 439.578 512 444C512 448.422 508.422 452 504 452Z" fill="#787184"/>
<path d="M176 340C171.578 340 168 336.422 168 332V316C168 311.578 171.578 308 176 308C180.422 308 184 311.578 184 316V332C184 336.422 180.422 340 176 340Z" fill="#787184"/>
<path d="M40 156C26.745 156 16 145.255 16 132V76C16 67.163 23.163 60 32 60H64V132C64 145.255 53.255 156 40 156Z" fill="#E18855"/>
<path d="M88 156C74.745 156 64 145.255 64 132V60H112V132C112 145.255 101.255 156 88 156Z" fill="#EF596B"/>
<path d="M136 156C122.745 156 112 145.255 112 132V60H160V132C160 145.255 149.255 156 136 156Z" fill="#E18855"/>
<path d="M184 156C170.745 156 160 145.255 160 132V60H208V132C208 145.255 197.255 156 184 156Z" fill="#EF596B"/>
<path d="M232 156C218.745 156 208 145.255 208 132V60H256V132C256 145.255 245.255 156 232 156Z" fill="#E18855"/>
<path d="M280 156C266.745 156 256 145.255 256 132V60H304V132C304 145.255 293.255 156 280 156Z" fill="#EF596B"/>
<path d="M328 156C314.745 156 304 145.255 304 132V60H352V132C352 145.255 341.255 156 328 156Z" fill="#E18855"/>
<path d="M376 156C362.745 156 352 145.255 352 132V60H400V132C400 145.255 389.255 156 376 156Z" fill="#EF596B"/>
<path d="M424 156C410.745 156 400 145.255 400 132V60H448V132C448 145.255 437.255 156 424 156Z" fill="#E18855"/>
<path d="M472 156C458.745 156 448 145.255 448 132V60H480C488.837 60 496 67.163 496 76V132C496 145.255 485.255 156 472 156Z" fill="#EF596B"/>
<path d="M440 196H240C235.582 196 232 199.582 232 204V364C232 368.418 235.582 372 240 372H440C444.418 372 448 368.418 448 364V204C448 199.582 444.418 196 440 196Z" fill="#9BEBFF"/>
<path d="M397.588 372H440C444.418 372 448 368.418 448 364V354.53L289.47 196H232C229.165 196 226.793 197.56 225.372 199.784L397.588 372Z" fill="#CAF7FF"/>
<path d="M334.059 196L448 309.941V276L368 196H334.059Z" fill="#E4FBFF"/>
<path d="M440 380H240C231.18 380 224 372.82 224 364V204C224 195.18 231.18 188 240 188H440C448.82 188 456 195.18 456 204V364C456 372.82 448.82 380 440 380ZM240 204V364H440.016L440 204H240Z" fill="#5F464A"/>
<path d="M176 292H96C91.582 292 88 288.418 88 284V212C88 207.582 91.582 204 96 204H176C180.418 204 184 207.582 184 212V284C184 288.418 180.418 292 176 292Z" fill="#9BEBFF"/>
<path d="M136.099 204H96C91.582 204 88 207.582 88 212V223.784L156.216 292H176C180.418 292 184 288.418 184 284V251.901L136.099 204Z" fill="#CAF7FF"/>
</svg>
